outputs/icons/device/dark_mode_sharp.svg

<svg xmlns="http://www.w3.org/2000/svg" width="1200" height="1200" fill="none"><g clip-path="url(#a)"><path fill="#000" d="M600 150c-248.5 0-450 201.5-450 450s201.5 450 450 450 450-201.5 450-450c0-23-2-46-5-68-49 68.5-129 113-220 113-149 0-270-121-270-270 0-90.5 44.5-171 113-220-22-3-45-5-68-5"/></g><defs><clipPath id="a"><path fill="#fff" d="M0 0h1200v1200H0z"/></clipPath></defs></svg>

<svg width="1200" height="1200" viewBox="0 0 1200 1200" fill="none" xmlns="http://www.w3.org/2000/svg"><g clip-path="url(#clip0_133_51)"><path d="M600 150C351.5 150 150 351.5 150 600C150 848.5 351.5 1050 600 1050C848.5 1050 1050 848.5 1050 600C1050 577 1048 554 1045 532C996 600.5 916 645 825 645C676 645 555 524 555 375C555 284.5 599.5 204 668 155C646 152 623 150 600 150Z" fill="black"/></g><defs><clipPath id="clip0_133_51"><path width="24" fill="white" d="M0 0H1200V1200H0V0z"/></clipPath></defs></svg>
